Newaita-dark/apps/24/google-play-music-desktop-player.svg

<?xml version="1.0" encoding="UTF-8"?>
<svg xmlns="http://www.w3.org/2000/svg" xmlns:xlink="http://www.w3.org/1999/xlink" width="24px" height="24px" viewBox="0 0 24 24" version="1.1">
<defs>
<radialGradient id="radial0" gradientUnits="userSpaceOnUse" cx="450.908936" cy="189.579361" fx="450.908936" fy="189.579361" r="21.166656" gradientTransform="matrix(0.000000130628,-0.0585994,-0.105479,-0.0000000761539,33.392364,47.696497)">
<stop offset="0" style="stop-color:rgb(0%,0%,0%);stop-opacity:0.313726;"/>
<stop offset="0.222222" style="stop-color:rgb(0%,0%,0%);stop-opacity:0.27451;"/>
<stop offset="1" style="stop-color:rgb(0%,0%,0%);stop-opacity:0;"/>
</radialGradient>
<radialGradient id="radial1" gradientUnits="userSpaceOnUse" cx="450.908936" cy="189.579361" fx="450.908936" fy="189.579361" r="21.166656" gradientTransform="matrix(-0.000000130628,0.0585994,0.105479,0.0000000761539,-9.577589,-5.645612)">
<stop offset="0" style="stop-color:rgb(0%,0%,0%);stop-opacity:0.313726;"/>
<stop offset="0.222222" style="stop-color:rgb(0%,0%,0%);stop-opacity:0.27451;"/>
<stop offset="1" style="stop-color:rgb(0%,0%,0%);stop-opacity:0;"/>
</radialGradient>
<radialGradient id="radial2" gradientUnits="userSpaceOnUse" cx="450.908936" cy="189.579361" fx="450.908936" fy="189.579361" r="21.166656" gradientTransform="matrix(-0.000000130628,-0.0585994,0.105479,-0.0000000761539,-9.577589,47.696497)">
<stop offset="0" style="stop-color:rgb(0%,0%,0%);stop-opacity:0.313726;"/>
<stop offset="0.222222" style="stop-color:rgb(0%,0%,0%);stop-opacity:0.27451;"/>
<stop offset="1" style="stop-color:rgb(0%,0%,0%);stop-opacity:0;"/>
</radialGradient>
<radialGradient id="radial3" gradientUnits="userSpaceOnUse" cx="450.908936" cy="189.579361" fx="450.908936" fy="189.579361" r="21.166656" gradientTransform="matrix(0.000000130628,0.0585994,-0.105479,0.0000000761539,33.392362,-5.645612)">
<stop offset="0" style="stop-color:rgb(0%,0%,0%);stop-opacity:0.313726;"/>
<stop offset="0.222222" style="stop-color:rgb(0%,0%,0%);stop-opacity:0.27451;"/>
<stop offset="1" style="stop-color:rgb(0%,0%,0%);stop-opacity:0;"/>
</radialGradient>
<linearGradient id="linear0" gradientUnits="userSpaceOnUse" x1="255.323059" y1="233.5" x2="255.323044" y2="254.666656" gradientTransform="matrix(0.01002,0,0,0.0468795,9.34904,10.079088)">
<stop offset="0" style="stop-color:rgb(0%,0%,0%);stop-opacity:0.27451;"/>
<stop offset="1" style="stop-color:rgb(0%,0%,0%);stop-opacity:0;"/>
</linearGradient>
<linearGradient id="linear1" gradientUnits="userSpaceOnUse" x1="254" y1="-168.666672" x2="254" y2="233.5" gradientTransform="matrix(1,0,0,1,0,0)">
<stop offset="0" style="stop-color:rgb(100%,54.11765%,39.607844%);stop-opacity:1;"/>
<stop offset="1" style="stop-color:rgb(100%,43.921569%,26.274511%);stop-opacity:1;"/>
</linearGradient>
<linearGradient id="linear2" gradientUnits="userSpaceOnUse" x1="254" y1="-168.666672" x2="254" y2="233.5" gradientTransform="matrix(0.0370101,0,0,0.0370101,2.506817,10.399019)">
<stop offset="0" style="stop-color:rgb(100%,83.529413%,30.980393%);stop-opacity:1;"/>
<stop offset="1" style="stop-color:rgb(100%,79.215688%,15.686275%);stop-opacity:1;"/>
</linearGradient>
<linearGradient id="linear3" gradientUnits="userSpaceOnUse" x1="254" y1="85.333336" x2="254" y2="-94.583336" gradientTransform="matrix(1,0,0,1,-11.906255,41.904667)">
<stop offset="0" style="stop-color:rgb(87.843138%,87.843138%,87.843138%);stop-opacity:1;"/>
<stop offset="1" style="stop-color:rgb(98.039216%,98.039216%,98.039216%);stop-opacity:1;"/>
</linearGradient>
</defs>
<g id="surface1">
<path style=" stroke:none;fill-rule:nonzero;fill:url(#radial0);" d="M 13.644531 21.027344 L 15.628906 21.027344 L 15.628906 20.03125 L 13.644531 20.03125 Z M 13.644531 21.027344 "/>
<path style=" stroke:none;fill-rule:nonzero;fill:url(#radial1);" d="M 10.171875 21.027344 L 8.1875 21.027344 L 8.1875 22.019531 L 10.171875 22.019531 Z M 10.171875 21.027344 "/>
<path style=" stroke:none;fill-rule:nonzero;fill:url(#radial2);" d="M 10.171875 21.027344 L 8.1875 21.027344 L 8.1875 20.03125 L 10.171875 20.03125 Z M 10.171875 21.027344 "/>
<path style=" stroke:none;fill-rule:nonzero;fill:url(#radial3);" d="M 13.644531 21.027344 L 15.628906 21.027344 L 15.628906 22.019531 L 13.644531 22.019531 Z M 13.644531 21.027344 "/>
<path style=" stroke:none;fill-rule:nonzero;fill:url(#linear0);" d="M 10.171875 20.777344 L 13.644531 20.777344 L 13.644531 22.019531 L 10.171875 22.019531 Z M 10.171875 20.777344 "/>
<path style="fill-rule:nonzero;fill:url(#linear1);stroke-width:3;stroke-linecap:round;stroke-linejoin:miter;stroke:rgb(20%,20%,20%);stroke-opacity:1;stroke-miterlimit:4;" d="M 253.975747 -168.671091 C 365.048473 -168.671091 455.123205 -78.679685 455.123205 32.393042 C 455.123205 143.465768 365.048473 233.5405 253.975747 233.5405 C 142.986345 233.5405 52.911614 143.465768 52.911614 32.393042 C 52.911614 -78.679685 142.986345 -168.671091 253.975747 -168.671091 Z M 253.975747 -168.671091 " transform="matrix(0.0468795,0,0,0.0468795,0,10.079087)"/>
<path style=" stroke:none;fill-rule:nonzero;fill:rgb(0%,0%,0%);fill-opacity:0.196078;" d="M 11.90625 21.027344 C 6.683594 21.027344 2.480469 16.820312 2.480469 11.597656 C 2.480469 11.566406 2.480469 11.539062 2.480469 11.507812 C 2.53125 16.6875 6.714844 20.839844 11.90625 20.839844 C 17.097656 20.839844 21.285156 16.6875 21.332031 11.507812 C 21.332031 11.539062 21.335938 11.566406 21.335938 11.597656 C 21.335938 16.820312 17.128906 21.027344 11.90625 21.027344 Z M 11.90625 21.027344 "/>
<path style=" stroke:none;fill-rule:nonzero;fill:rgb(100%,100%,100%);fill-opacity:0.392157;" d="M 11.90625 2.171875 C 6.683594 2.171875 2.480469 6.375 2.480469 11.597656 C 2.480469 11.628906 2.480469 11.660156 2.480469 11.691406 C 2.53125 6.511719 6.714844 2.355469 11.90625 2.355469 C 17.097656 2.355469 21.285156 6.511719 21.332031 11.691406 C 21.332031 11.660156 21.335938 11.628906 21.335938 11.597656 C 21.335938 6.375 17.128906 2.171875 11.90625 2.171875 Z M 11.90625 2.171875 "/>
<path style=" stroke:none;fill-rule:nonzero;fill:rgb(12.941177%,12.941177%,12.941177%);fill-opacity:1;" d="M 11.90625 2.101562 C 6.648438 2.101562 2.410156 6.339844 2.410156 11.597656 C 2.410156 16.859375 6.648438 21.097656 11.90625 21.097656 C 17.167969 21.097656 21.40625 16.859375 21.40625 11.597656 C 21.40625 6.339844 17.167969 2.101562 11.90625 2.101562 Z M 11.90625 2.242188 C 17.09375 2.242188 21.265625 6.414062 21.265625 11.597656 C 21.265625 16.785156 17.09375 20.957031 11.90625 20.957031 C 6.722656 20.957031 2.550781 16.785156 2.550781 11.597656 C 2.550781 6.414062 6.722656 2.242188 11.90625 2.242188 Z M 11.90625 2.242188 "/>
<path style=" stroke:none;fill-rule:nonzero;fill:url(#linear2);" d="M 11.90625 4.15625 C 16.015625 4.15625 19.347656 7.488281 19.347656 11.597656 C 19.347656 15.707031 16.015625 19.039062 11.90625 19.039062 C 7.796875 19.039062 4.464844 15.707031 4.464844 11.597656 C 4.464844 7.488281 7.796875 4.15625 11.90625 4.15625 Z M 11.90625 4.15625 "/>
<path style="fill-rule:nonzero;fill:url(#linear3);stroke-width:3;stroke-linecap:round;stroke-linejoin:miter;stroke:rgb(80.000001%,80.000001%,80.000001%);stroke-opacity:1;stroke-miterlimit:4;" d="M 210.313249 -53.098794 C 198.647697 -53.098794 189.148604 -43.683027 189.148604 -31.934149 L 189.148604 106.052674 C 189.148604 117.801552 198.647697 127.21732 210.313249 127.21732 C 220.895572 127.21732 307.387313 69.306183 355.882682 39.892326 C 363.798592 34.642827 363.798592 29.310003 355.882682 24.060504 C 307.387313 -1.687037 226.228396 -52.682167 210.313249 -53.098794 Z M 210.313249 -53.098794 " transform="matrix(0.0468795,0,0,0.0468795,0,10.079087)"/>
<path style=" stroke:none;fill-rule:nonzero;fill:rgb(100%,100%,100%);fill-opacity:0.996774;" d="M 9.859375 7.589844 C 9.3125 7.589844 8.867188 8.03125 8.867188 8.582031 L 8.867188 8.789062 C 8.867188 8.238281 9.3125 7.796875 9.859375 7.796875 C 10.605469 7.816406 14.410156 10.207031 16.683594 11.414062 C 16.816406 11.503906 16.902344 11.59375 16.941406 11.683594 C 17.007812 11.523438 16.921875 11.363281 16.683594 11.207031 C 14.410156 10 10.605469 7.609375 9.859375 7.589844 Z M 9.859375 7.589844 "/>
<path style=" stroke:none;fill-rule:nonzero;fill:rgb(12.941177%,12.941177%,12.941177%);fill-opacity:1;" d="M 9.859375 7.519531 C 9.273438 7.519531 8.796875 7.996094 8.796875 8.582031 L 8.796875 15.050781 C 8.796875 15.636719 9.273438 16.113281 9.859375 16.113281 C 9.953125 16.113281 10.066406 16.066406 10.234375 15.988281 C 10.398438 15.910156 10.609375 15.796875 10.851562 15.660156 C 11.339844 15.382812 11.960938 15 12.640625 14.574219 C 14.003906 13.722656 15.582031 12.699219 16.71875 12.011719 L 16.722656 12.007812 C 16.917969 11.878906 17.03125 11.738281 17.03125 11.578125 C 17.03125 11.417969 16.917969 11.277344 16.722656 11.148438 L 16.71875 11.144531 L 16.714844 11.144531 C 15.582031 10.542969 14.0625 9.644531 12.734375 8.890625 C 12.066406 8.515625 11.449219 8.175781 10.953125 7.929688 C 10.703125 7.808594 10.484375 7.707031 10.300781 7.636719 C 10.117188 7.566406 9.972656 7.523438 9.863281 7.519531 Z M 9.859375 7.660156 C 9.933594 7.660156 10.074219 7.699219 10.25 7.765625 C 10.425781 7.835938 10.640625 7.933594 10.890625 8.054688 C 11.382812 8.300781 12 8.640625 12.664062 9.015625 C 13.988281 9.765625 15.503906 10.660156 16.644531 11.265625 C 16.820312 11.382812 16.890625 11.488281 16.890625 11.578125 C 16.890625 11.667969 16.820312 11.773438 16.644531 11.890625 C 15.503906 12.582031 13.925781 13.601562 12.566406 14.453125 C 11.886719 14.878906 11.265625 15.261719 10.78125 15.535156 C 10.539062 15.671875 10.332031 15.785156 10.171875 15.859375 C 10.011719 15.933594 9.890625 15.972656 9.859375 15.972656 C 9.347656 15.972656 8.9375 15.5625 8.9375 15.050781 L 8.9375 8.582031 C 8.9375 8.070312 9.347656 7.660156 9.859375 7.660156 Z M 9.859375 7.660156 "/>
<path style=" stroke:none;fill-rule:nonzero;fill:rgb(0%,0%,0%);fill-opacity:0.235294;" d="M 11.90625 4.21875 C 7.785156 4.21875 4.464844 7.539062 4.464844 11.660156 C 4.464844 11.71875 4.464844 11.78125 4.46875 11.839844 C 4.570312 7.808594 7.847656 4.589844 11.90625 4.589844 C 15.964844 4.589844 19.246094 7.808594 19.347656 11.839844 C 19.347656 11.78125 19.347656 11.71875 19.347656 11.660156 C 19.347656 7.539062 16.03125 4.21875 11.90625 4.21875 Z M 11.90625 4.21875 "/>
<path style=" stroke:none;fill-rule:nonzero;fill:rgb(100%,100%,100%);fill-opacity:0.392157;" d="M 4.46875 11.847656 C 4.464844 11.929688 4.464844 12.011719 4.464844 12.09375 C 4.464844 16.21875 7.785156 19.535156 11.90625 19.535156 C 16.03125 19.535156 19.347656 16.21875 19.347656 12.09375 C 19.347656 12.011719 19.347656 11.929688 19.34375 11.847656 C 19.214844 15.855469 15.949219 19.039062 11.90625 19.039062 C 7.867188 19.039062 4.597656 15.855469 4.46875 11.847656 Z M 4.46875 11.847656 "/>
<path style="fill:none;stroke-width:3;stroke-linecap:round;stroke-linejoin:miter;stroke:rgb(20%,20%,20%);stroke-opacity:1;stroke-miterlimit:4;" d="M 253.975747 -126.3418 C 341.634042 -126.3418 412.710588 -55.265254 412.710588 32.393042 C 412.710588 120.051338 341.634042 191.127883 253.975747 191.127883 C 166.317451 191.127883 95.240905 120.051338 95.240905 32.393042 C 95.240905 -55.265254 166.317451 -126.3418 253.975747 -126.3418 Z M 253.975747 -126.3418 " transform="matrix(0.0468795,0,0,0.0468795,0,10.079087)"/>
<path style=" stroke:none;fill-rule:nonzero;fill:rgb(0%,0%,0%);fill-opacity:0.235294;" d="M 16.828125 11.835938 C 16.789062 11.875 16.738281 11.914062 16.683594 11.949219 C 14.410156 13.328125 10.355469 16.042969 9.859375 16.042969 C 9.3125 16.042969 8.867188 15.601562 8.867188 15.050781 L 8.867188 15.566406 C 8.867188 16.117188 9.3125 16.558594 9.859375 16.558594 C 10.355469 16.558594 14.410156 13.84375 16.683594 12.46875 C 16.996094 12.257812 17.046875 12.046875 16.828125 11.835938 Z M 16.828125 11.835938 "/>
</g>
</svg>

<svg xmlns="http://www.w3.org/2000/svg" width="32" height="32" viewBox="0 0 24 24"><defs><radialGradient id="a" gradientUnits="userSpaceOnUse" cx="450.909" cy="189.579" fx="450.909" fy="189.579" r="21.167" gradientTransform="matrix(0 -.0586 -.10548 0 33.392 47.696)"><stop offset="0" stop-opacity=".314"/><stop offset=".222" stop-opacity=".275"/><stop offset="1" stop-opacity="0"/></radialGradient><radialGradient id="b" gradientUnits="userSpaceOnUse" cx="450.909" cy="189.579" fx="450.909" fy="189.579" r="21.167" gradientTransform="matrix(0 .0586 .10548 0 -9.578 -5.646)"><stop offset="0" stop-opacity=".314"/><stop offset=".222" stop-opacity=".275"/><stop offset="1" stop-opacity="0"/></radialGradient><radialGradient id="c" gradientUnits="userSpaceOnUse" cx="450.909" cy="189.579" fx="450.909" fy="189.579" r="21.167" gradientTransform="matrix(0 -.0586 .10548 0 -9.578 47.696)"><stop offset="0" stop-opacity=".314"/><stop offset=".222" stop-opacity=".275"/><stop offset="1" stop-opacity="0"/></radialGradient><radialGradient id="d" gradientUnits="userSpaceOnUse" cx="450.909" cy="189.579" fx="450.909" fy="189.579" r="21.167" gradientTransform="matrix(0 .0586 -.10548 0 33.392 -5.646)"><stop offset="0" stop-opacity=".314"/><stop offset=".222" stop-opacity=".275"/><stop offset="1" stop-opacity="0"/></radialGradient><linearGradient id="e" gradientUnits="userSpaceOnUse" x1="255.323" y1="233.5" x2="255.323" y2="254.667" gradientTransform="matrix(.01002 0 0 .04688 9.349 10.08)"><stop offset="0" stop-opacity=".275"/><stop offset="1" stop-opacity="0"/></linearGradient><linearGradient id="f" gradientUnits="userSpaceOnUse" x1="254" y1="-168.667" x2="254" y2="233.5"><stop offset="0" stop-color="#ff8a65"/><stop offset="1" stop-color="#ff7043"/></linearGradient><linearGradient id="g" gradientUnits="userSpaceOnUse" x1="254" y1="-168.667" x2="254" y2="233.5" gradientTransform="translate(80.21 10.237) scale(.68421)"><stop offset="0" stop-color="#ffd54f"/><stop offset="1" stop-color="#ffca28"/></linearGradient><linearGradient id="h" gradientUnits="userSpaceOnUse" x1="254" y1="85.333" x2="254" y2="-94.583" gradientTransform="translate(-11.906 41.905)"><stop offset="0" stop-color="#e0e0e0"/><stop offset="1" stop-color="#fafafa"/></linearGradient></defs><path d="M13.645 21.027h1.984v-.996h-1.984zm0 0" fill="url(#a)"/><path d="M10.172 21.027H8.187v.993h1.985zm0 0" fill="url(#b)"/><path d="M10.172 21.027H8.187v-.996h1.985zm0 0" fill="url(#c)"/><path d="M13.645 21.027h1.984v.993h-1.984zm0 0" fill="url(#d)"/><path d="M10.172 20.777h3.473v1.243h-3.473zm0 0" fill="url(#e)"/><path d="M253.976-168.671c111.072 0 201.147 89.991 201.147 201.064s-90.075 201.148-201.147 201.148c-110.99 0-201.064-90.075-201.064-201.148s90.074-201.064 201.064-201.064zm0 0" transform="matrix(.04688 0 0 .04688 0 10.08)" fill="url(#f)" stroke-width="3" stroke-linecap="round" stroke="#333"/><path d="M11.906 21.027a9.408 9.408 0 0 1-9.426-9.43v-.09a9.404 9.404 0 0 0 9.426 9.333 9.402 9.402 0 0 0 9.426-9.332c0 .031.004.058.004.09a9.41 9.41 0 0 1-9.43 9.43zm0 0" fill-opacity=".196"/><path d="M11.906 2.172a9.404 9.404 0 0 0-9.426 9.52 9.408 9.408 0 0 1 9.426-9.337 9.405 9.405 0 0 1 9.426 9.336c0-.03.004-.062.004-.093a9.408 9.408 0 0 0-9.43-9.426zm0 0" fill="#fff" fill-opacity=".392"/><path d="M11.906 2.102a9.48 9.48 0 0 0-9.496 9.496 9.48 9.48 0 0 0 9.496 9.5 9.48 9.48 0 0 0 9.5-9.5 9.48 9.48 0 0 0-9.5-9.496zm0 .14a9.335 9.335 0 0 1 9.36 9.356 9.336 9.336 0 0 1-9.36 9.359 9.335 9.335 0 0 1-9.355-9.36 9.334 9.334 0 0 1 9.355-9.355zm0 0" fill="#212121"/><path d="M253.976-105.177c75.992 0 137.57 61.577 137.57 137.57s-61.578 137.57-137.57 137.57c-75.993 0-137.57-61.577-137.57-137.57s61.577-137.57 137.57-137.57zm0 0" transform="matrix(.04688 0 0 .04688 0 10.08)" fill="url(#g)" stroke-width="3" stroke-linecap="round" stroke="#333"/><path d="M210.313-53.099c-11.665 0-21.164 9.416-21.164 21.165v137.987c0 11.749 9.499 21.164 21.164 21.164 10.583 0 97.074-57.91 145.57-87.325 7.916-5.25 7.916-10.582 0-15.831-48.496-25.748-129.655-76.743-145.57-77.16zm0 0" transform="matrix(.04688 0 0 .04688 0 10.08)" fill="url(#h)" stroke-width="3" stroke-linecap="round" stroke="#ccc"/><path d="M16.957 11.438c-.039.09-.125.18-.258.265-2.273 1.375-6.324 4.094-6.82 4.094a.991.991 0 0 1-.992-.992v.21c0 .551.441.993.992.993.496.004 4.547-2.715 6.82-4.09.242-.16.324-.32.258-.48zm0 0" fill-opacity=".196"/><path d="M9.86 7.59a.991.991 0 0 0-.993.992v.207c0-.55.445-.992.992-.992.746.02 4.551 2.41 6.825 3.617.132.09.218.18.257.27.067-.16-.02-.32-.257-.477C14.41 10 10.605 7.609 9.859 7.59zm0 0" fill="#fff" fill-opacity=".702"/><path d="M9.86 7.52c-.587 0-1.063.476-1.063 1.062v6.469c0 .586.476 1.062 1.062 1.062.094 0 .207-.047.375-.125.164-.078.375-.191.618-.328.488-.277 1.109-.66 1.789-1.086 1.363-.851 2.941-1.875 4.078-2.562l.004-.004c.195-.13.308-.27.308-.43 0-.16-.113-.3-.308-.43l-.004-.003h-.004c-1.133-.602-2.652-1.5-3.98-2.254a42.615 42.615 0 0 0-1.782-.961 8.854 8.854 0 0 0-.652-.293c-.184-.07-.328-.114-.438-.117zm0 .14c.074 0 .214.04.39.106.176.07.39.168.64.289.493.246 1.11.586 1.774.96 1.324.75 2.84 1.645 3.98 2.25.176.118.247.223.247.313s-.07.195-.246.313c-1.141.691-2.72 1.71-4.079 2.562-.68.426-1.3.809-1.785 1.082-.242.137-.449.25-.61.324-.16.075-.28.114-.312.114a.919.919 0 0 1-.921-.922V8.582c0-.512.41-.922.921-.922zm0 0" fill="#212121"/></svg>
